!!!!SEGMENT: pl-wumfc--r304--001-003_paderewski-ignacy-jan--suite-adagio.krn
!!!cenid: 18xx:3222
!!!COM: Paderewski, Ignacy Jan
!!!COM-rismID: pe30029943
!!!CDT: 1860/11/18-1941/06/29
!!!CNT: Polish
!!!OPR: [Suite]
!!!OTL: Adagio
!!!OMV: 003
!!!PDT:
!!!AGN:
!!!SMS-siglum: PL-Wumfc
!!!SMS-shelfmark: R304
!!!SMS-shelfwork: 001-003 M
!!!SMS-variant:
!!!SMS-altvar:
!!!NIFC-rismSourceID: 1001159515
!!!NIFC-rismChildID: 1001159515
!!!NIFC-islandoraID: pl-wumfc:639
!!!URL-pdf-islandora: https://repozytorium.nifc.pl/islandora/object/pl-wumfc%3A639/datastream/PDF/view
!!!URL-scan: https://polish.musicsources.pl/pl/lokalizacje/galeria/rekopisy/4725 @EN{Scan on Polish Music Sources Website} @PL{Skany w portalu Dziedzictwo Muzyki Polskiej w otwartym dostępie}
!!!IIIF:
!!!ONB-nifc: UWAGA: obsada vl (2), vla, vlc, cb. Od skanu 0009
!!!OMD: Adagio.
!!!OMD-mod: Adagio
!!!AIN: 1 cbass 1 cello 1 viola 2 violn
!!!key: G
!!!filter-modern: sic -sq | shed -e "s/yy//" | shed -e "s/:rj/:RJ/L" | shed -k -e "s/([^a-gA-Gn#X-])[<>]/$1/g" | shed -e "s/LO:DY:(a|b|rj)/LO:dy:$1/L" | shed -e "s/-//B" | | autostem -r | modori -m
**kern	**dynam	**kern	**dynam	**kern	**dynam	**kern	**dynam	**kern	**dynam
*part5	*part5	*part4	*part4	*part3	*part3	*part2	*part2	*part1	*part1
*staff5	*	*staff4	*	*staff3	*	*staff2	*	*staff1	*
*I"Contrabbasso	*	*I"Violoncello	*	*I"Viola	*	*I"Violino II	*	*I"Violino I	*
*I'cb	*	*I'vlc	*	*I'vla	*	*I'vl 2	*	*I'vl 1	*
*Icbass	*	*Icello	*	*Iviola	*	*Ivioln	*	*Ivioln	*
*ICstr	*	*ICstr	*	*ICstr	*	*ICstr	*	*ICstr	*
*clefF4	*	*clefF4	*	*clefC3	*	*clefG2	*	*clefG2	*
*Trd0c0	*	*	*	*	*	*	*	*	*
*k[f#]	*	*k[f#]	*	*k[f#]	*	*k[f#]	*	*k[f#]	*
*G:	*	*G:	*	*G:	*	*G:	*	*G:	*
*M4/4	*	*M4/4	*	*M4/4	*	*M4/4	*	*M4/4	*
=1	=1	=1	=1	=1	=1	=1	=1	=1	=1
4r	.	4r	.	1r	.	1r	.	1r	.
!	!LO:DY:a:t=p.	!	!LO:DY:a:t=p.	!	!	!	!	!	!
(>4G\	p	(>4G\	p	.	.	.	.	.	.
4F#\	.	4F#\	.	.	.	.	.	.	.
4E\	.	4E\	.	.	.	.	.	.	.
=2	=2	=2	=2	=2	=2	=2	=2	=2	=2
4D\	.	4D\	.	1r	.	1r	.	1r	.
8G\L	.	8G\L	.	.	.	.	.	.	.
8E\J	.	8E\J	.	.	.	.	.	.	.
4D\	.	4D\	.	.	.	.	.	.	.
4BB\)	.	4BB\)	.	.	.	.	.	.	.
=3	=3	=3	=3	=3	=3	=3	=3	=3	=3
(>4GG\	.	(>4GG\	.	1r	.	1r	.	1r	.
4AA\	.	4AA\	.	.	.	.	.	.	.
4BB\	.	4BB\	.	.	.	.	.	.	.
4E\	.	4E\	.	.	.	.	.	.	.
=4	=4	=4	=4	=4	=4	=4	=4	=4	=4
[>1D)	.	[>1D)	.	1r	.	1r	.	1r	.
=5	=5	=5	=5	=5	=5	=5	=5	=5	=5
*	*	*	*	*	*	*	*	*^	*
1D_>	.	1D_>	.	4r	.	4r	.	4r	4ryy	.
!	!	!	!	!	!LO:MO:null:mod=!LO&colon;DY&colon;ed=brack	!	!LO:MO:null:mod=!LO&colon;DY&colon;ed=brack	!	!	!LO:MO:null:mod=!LO&colon;DY&colon;ed=brack
!	!	!	!	!	!	!	!	!	!	!
!	!	!	!	!	!LO:MO:null:mod=p	!	!LO:MO:null:mod=p	!	!	!LO:MO:null:mod=p
.	.	.	.	(4b\	.	(4dd/	.	N(<<(>4gg/	4gg\	.
.	.	.	.	4a\	.	4cc/	.	[2ddd/	4ff#\	.
.	.	.	.	4g\	.	4b/	.	.	4ee\	.
=6	=6	=6	=6	=6	=6	=6	=6	=6	=6	=6
1D_>	.	1D_>	.	4f#\	.	4a/	.	8ddd/L])	4dd\	.
.	.	.	.	.	.	.	.	8ddd/	.	.
.	.	.	.	4e\	.	(2.g/)	.	8ggg/	4cc\	.
.	.	.	.	.	.	.	.	(8ddd/J	.	.
.	.	.	.	4d\	.	.	.	4ggg/	4b\	.
.	.	.	.	4c\)	.	.	.	4eee/	4cc\	.
=7	=7	=7	=7	=7	=7	=7	=7	=7	=7	=7
!LO:N:vis=2	!	!	!	!	!	!	!	!	!	!
1D_>	.	1D_>	.	(4B\	.	(2g/)	.	4ddd/	4dd\	.
.	.	.	.	4A\	.	.	.	4ccc/	4ee\	.
.	.	.	.	[<2d\	.	(8f#/L)	.	2bb/	2dd\N)	.
.	.	.	.	.	.	8f#/	.	.	.	.
.	.	.	.	.	.	8b/	.	.	.	.
.	.	.	.	.	.	8f#/J	.	.	.	.
!!LO:LB:g=original
=8	=8	=8	=8	=8	=8	=8	=8	=8	=8	=8
(1D]	.	(1D]	.	(2d\)_>	.	4b/)	.	4bb/)	4dd\	.
.	.	.	.	.	.	4cc/	.	4aa/	4ee\	.
.	.	.	.	(>8d\L]	.	4a/	.	4ee/	2cc\	.
.	.	.	.	8A\	.	.	.	.	.	.
.	.	.	.	8d\	.	4f#/	.	4ff#/	.	.
.	.	.	.	8A\J	.	.	.	.	.	.
=9	=9	=9	=9	=9	=9	=9	=9	=9	=9	=9
4G\)	.	4G\)	.	4G/)	.	4d/	.	4gg/	4b\	.
(>4G\	.	(>4G\	.	4r	.	4r	.	4r	4ryy	.
4F#\	.	4F#\	.	2r	.	2r	.	2r	2ryy	.
4E\	.	4E\	.	.	.	.	.	.	.	.
*	*	*	*	*	*	*	*	*v	*v	*
=10	=10	=10	=10	=10	=10	=10	=10	=10	=10
4D\	.	4D\	.	1r	.	1r	.	1r	.
!LO:N:vis=4	!	!	!	!	!	!	!	!	!
8G\L	.	8G\L	.	.	.	.	.	.	.
8E\J	.	8E\J	.	.	.	.	.	.	.
4D\	.	4D\	.	.	.	.	.	.	.
4BB\)	.	4BB\)	.	.	.	.	.	.	.
=11	=11	=11	=11	=11	=11	=11	=11	=11	=11
(>4GG\	.	(>4GG\	.	1r	.	1r	.	1r	.
4AA\	.	4AA\	.	.	.	.	.	.	.
4BB\	.	4BB\	.	.	.	.	.	.	.
4E\	.	4E\	.	.	.	.	.	.	.
=12	=12	=12	=12	=12	=12	=12	=12	=12	=12
[>1BB)	.	[>1BB)	.	1r	.	1r	.	1r	.
=13	=13	=13	=13	=13	=13	=13	=13	=13	=13
*	*	*	*	*	*	*	*	*^	*
1BB_>	.	1BB_>	.	4r	.	4r	.	4r	4ryy	.
!	!	!	!	!	!	!	!	!LO:SIC:s=(4ee	!LO:SIC:s=(4ee	!
.	.	.	.	(>4g\	.	(>4b\	.	4ee/	4ee\	.
.	.	.	.	4f#\	.	4a\	.	[>2bb/	4dd#X\	.
.	.	.	.	4e\	.	4g/	.	.	4cc\	.
=14	=14	=14	=14	=14	=14	=14	=14	=14	=14	=14
1BB]	.	1BB]	.	4d#X\	.	4f#/	.	8bb/L]	4b\	.
.	.	.	.	.	.	.	.	8bb/	.	.
.	.	.	.	4c\	.	2.e/)	.	8eee/	4a\	.
.	.	.	.	.	.	.	.	8bb/J	.	.
.	.	.	.	4B\	.	.	.	4eee/	4g\	.
!	!	!	!	!	!	!	!	!LO:SIC:s=4ccc)	!LO:SIC:s=4a)	!
.	.	.	.	4A\)	.	.	.	4ccc/	4a\	.
!!LO:PB:g=original
=15	=15	=15	=15	=15	=15	=15	=15	=15	=15	=15
*	*	*	*	*	*	*^	*	*	*	*
1r	.	1r	.	(>2g\	.	(>2gg/	[<2dd\	.	(>2ggg/	(<2bb\	.
.	.	.	.	2d\	.	2ff#/)	2dd\]	.	2fff#/)	2aa\)	.
=16	=16	=16	=16	=16	=16	=16	=16	=16	=16	=16	=16
1r	.	1r	.	2e\	.	(>2ee/	[<2b\	.	(>2eee/	2gg\	.
.	.	.	.	2B\)	.	2dd/)	2b\]	.	4ddd/	2ff#\	.
.	.	.	.	.	.	.	.	.	4bb/)	.	.
=17	=17	=17	=17	=17	=17	=17	=17	=17	=17	=17	=17
1r	.	1r	.	(>2e\	.	1ee	(>2b\	.	(>2bb/	(<2gg\	.
.	.	.	.	2A\)	.	.	4dd\	.	4ddd/	2aa\	.
.	.	.	.	.	.	.	4cc\)	.	4ccc/))	.	.
=18	=18	=18	=18	=18	=18	=18	=18	=18	=18	=18	=18
1r	.	1r	.	(>2d\	.	[>2dd/	(2b\	.	(>2bb/	(<2gg\	.
.	.	.	.	4d\)	.	4dd/]	4a\)	.	8aa/L	4ff#\)	.
.	.	.	.	.	.	.	.	.	8ddd/	.	.
!	!	!	!	!	!	!LO:MO:mod=4ryyyy	!	!	!	!	!
.	.	.	.	4r	.	4rff	4r	.	8fff#/	4r	.
.	.	.	.	.	.	.	.	.	8aaa/J)	.	.
=19	=19	=19	=19	=19	=19	=19	=19	=19	=19	=19	=19
*	*	*	*	*^	*	*	*	*	*	*	*
1r	.	1r	.	(>2dd/	(<2g\	.	(>2bb/	(<2gg\	.	(>2bbb/	[<2ddd\	.
.	.	.	.	2dd/)	2d\)	.	2aa/)	2ff#\)	.	2aaa/)	2ddd\]	.
=20	=20	=20	=20	=20	=20	=20	=20	=20	=20	=20	=20	=20
1r	.	1r	.	[>2b/	(<2e\	.	(>2gg/	(<2ee\	.	(>2ggg/	[>2bb\	.
.	.	.	.	2b/]	2B\)	.	2ff#/)	2dd\)	.	4fff#/	2bb\]	.
.	.	.	.	.	.	.	.	.	.	4ddd/)	.	.
=21	=21	=21	=21	=21	=21	=21	=21	=21	=21	=21	=21	=21
1r	.	1r	.	(>2b/	(<2g\	.	1gg	(<2dd\	.	(>2ddd/	[<2bb\	.
.	.	.	.	2b/)	2c#X\)	.	.	2ee\)	.	2ggg/)	2bb\]	.
!!LO:LB:g=original
=22	=22	=22	=22	=22	=22	=22	=22	=22	=22	=22	=22	=22
!	!	!	!	!	!	!	!	!	!	!LO:SIC:s=(4ccc#	!	!
1r	.	1r	.	2a#X/	2e\	.	1ff#;>	2ee\	.	4ccc#X/	2aa#X\	.
!	!	!	!	!	!	!	!	!	!	!LO:SIC:s=4ddd)	!	!
.	.	.	.	.	.	.	.	.	.	4ddd/	.	.
.	.	.	.	2b;>/	2B\	.	.	2dd;>\	.	2ddd;>/	2bb\	.
*	*	*	*	*	*	*	*v	*v	*	*	*	*
*	*	*	*	*	*	*	*	*	*v	*v	*
=23	=23	=23	=23	=23	=23	=23	=23	=23	=23	=23
*	*	*^	*	*	*	*	*	*	*	*
(>2GG\	.	(>2G/	(<2GG\	.	1d	1B	.	(>2g/	.	1r	.
2BB\	.	2F#/	2BB\	.	.	.	.	2f#/	.	.	.
=24	=24	=24	=24	=24	=24	=24	=24	=24	=24	=24	=24
2D\	.	2Fn/	2D\	.	1d	(>2A\	.	2fn/	.	1ryy	.
2GG#X\)	.	2E/)	2GG#X\)	.	.	2B\)	.	2e/)	.	.	.
=25	=25	=25	=25	=25	=25	=25	=25	=25	=25	=25	=25
2AA\	.	(>2E/	2AA\	.	(>2c/	(<2A\	.	2.e/	.	1ryy	.
(>4A\	.	2A/)	(>4AA\	.	[>2e/)	[<2c\)	.	.	.	.	.
4G\	.	.	4GG\	.	.	.	.	(>4e/	.	.	.
=26	=26	=26	=26	=26	=26	=26	=26	=26	=26	=26	=26
2F#\	.	1A	2FF#\	.	2e/]	2c\]	.	2a/)	.	1ryy	.
2BB\)	.	.	2BB\)	.	2d#X/	2B\	.	(>4g/	.	.	.
.	.	.	.	.	.	.	.	4f#/)	.	.	.
=27	=27	=27	=27	=27	=27	=27	=27	=27	=27	=27	=27
(>2E\	.	(>2G/	2E\	.	2e/	2B\	.	(>2g/	.	1ryy	.
2D\	.	2A/	2D\	.	[>2f#/	[<2d\	.	2a/	.	.	.
=28	=28	=28	=28	=28	=28	=28	=28	=28	=28	=28	=28
2BB\	.	2B/	2BB\	.	2f#/]	2d\]	.	2b/	.	1ryy	.
!	!	!	!	!	!	!LO:SIC:s=(4e	!	!	!	!	!
2AA\)	.	2c/)	2AA\	.	2a/	4e\	.	2cc/)	.	.	.
!	!	!	!	!	!	!LO:SIC:s=4e-)	!	!	!	!	!
.	.	.	.	.	.	4e-X\	.	.	.	.	.
!!LO:LB:g=original
=29	=29	=29	=29	=29	=29	=29	=29	=29	=29	=29	=29
1D	.	(>2.B/	1D	.	1f#	(<2d\	.	(>2.b/	.	1ryy	.
!	!LO:MO:null:mod=!LO&colon;HP&colon;ed=brack	!	!	!	!	!	!LO:MO:null:mod=!LO&colon;HP&colon;ed=brack	!	!	!	!
!	!	!	!	!	!	!	!	!	!	!	!
!	!LO:MO:null:mod=<	!	!	!	!	!	!LO:MO:null:mod=<[	!	!	!	!
.	.	.	.	.	.	2c\	.	.	.	.	.
!	!	!	!	!LO:MO:null:mod=!LO&colon;HP&colon;ed=brack	!	!	!	!	!	!	!
!	!	!	!	!	!	!	!	!	!	!	!
!	!LO:MO:null:mod=[[	!	!	!LO:MO:null:mod=<[	!	!	!	!	!	!	!
.	.	4A/)	.	.	.	.	.	4a/	<[	.	.
=30	=30	=30	=30	=30	=30	=30	=30	=30	=30	=30	=30
!	!LO:MO:null:mod=!LO&colon;HP&colon;ed=brack	!	!	!LO:MO:null:mod=!LO&colon;HP&colon;ed=brack	!	!	!LO:MO:null:mod=!LO&colon;HP&colon;ed=brack	!	!	!	!
!	!	!	!	!	!	!	!	!	!	!	!
!	!LO:MO:null:mod=>]	!	!	!LO:MO:null:mod=>]	!	!	!LO:MO:null:mod=>]	!	!	!	!
1GG	.	1G	1GG 1D	.	1d	1B)	.	1g)	>]	1ryy	.
*	*	*v	*v	*	*	*	*	*	*	*	*
*	*	*	*	*v	*v	*	*	*	*	*
=31	=31	=31	=31	=31	=31	=31	=31	=31	=31
1r	.	(>2B\	.	(2f#\	.	(>2b/	.	(>2dd\	.
.	.	2E\)	.	4e\	.	2g/	.	4cc#X\	.
.	.	.	.	4d\)	.	.	.	4b\)	.
=32	=32	=32	=32	=32	=32	=32	=32	=32	=32
1r	.	(>2F#\	.	(4c#X\	.	1f#)	.	(>2a#X/	.
.	.	.	.	4f#\	.	.	.	.	.
.	.	2BB\)	.	2d\)	.	.	.	4b\	.
.	.	.	.	.	.	.	.	4dd\)	.
=33	=33	=33	=33	=33	=33	=33	=33	=33	=33
1r	.	(>2f#\	.	(>1a	.	(2dd\	.	(>2dd\	.
.	.	4e\	.	.	.	4cc#X\	.	4ee\	.
.	.	4d\)	.	.	.	4dd\	.	4ff#\	.
=34	=34	=34	=34	=34	=34	=34	=34	=34	=34
1r	.	(>4c#X\	.	2.a\)	.	4ee\	.	4.aa\	.
.	.	4A\	.	.	.	4cc#X\	.	.	.
.	.	.	.	.	.	.	.	8gg\)	.
.	.	4d\)	.	.	.	4dd\)	.	(>4ff#\	.
.	.	4r	.	4r	.	4r	.	4aa\)	.
=35	=35	=35	=35	=35	=35	=35	=35	=35	=35
*	*	*^	*	*	*	*	*	*^	*
2D\	.	(>2A/	2D\	.	(>2a\	.	(>2ff#/	.	(>2aaa/	1aa	.
2D#X\	.	4B/	2D#X\	.	4b\	.	4gg/	.	4ggg/	.	.
!	!	!	!	!	!	!	!	!	!LO:SIC:v:s=4fff#/	!	!
.	.	4B/)	.	.	4a\)	.	4ff#/)	.	4ddd/	.	.
=36	=36	=36	=36	=36	=36	=36	=36	=36	=36	=36	=36
2E\	.	(>4B/	2E\	.	(>2g\	.	(>4ee/	.	4eee/	2gg\	.
.	.	4d/	.	.	.	.	4dd/	.	4ddd/	.	.
2E#X\	.	4c#X/	2E#X\	.	2g#X\)	.	4cc#X/	.	4ccc#X/	2gg#\	.
.	.	4B/)	.	.	.	.	4b/)	.	4bb/)	.	.
!!LO:LB:g=original
=37	=37	=37	=37	=37	=37	=37	=37	=37	=37	=37	=37
2F#\	.	(>2A#X/	2F#\	.	2f#\	.	(<4a#X/	.	(>4aa#X/	(<4ff#\	.
!	!LO:MO:null:mod=!LO&colon;HP&colon;ed=brack	!	!	!LO:MO:null:mod=!LO&colon;HP&colon;ed=brack	!	!LO:MO:null:mod=!LO&colon;HP&colon;ed=brack	!	!LO:MO:null:mod=!LO&colon;HP&colon;ed=brack	!	!	!
!	!	!	!	!	!	!	!	!	!	!	!
!	!LO:MO:null:mod=>	!	!	!LO:MO:null:mod=>	!	!LO:MO:null:mod=>	!	!LO:MO:null:mod=>	!	!	!
.	.	.	.	.	.	.	4g/	.	4gg/	4ee\	>
2AA#X\	.	2F#/	2AA#X\	.	(>4f#\	.	4f#/	.	4ff#/	4dd\	.
.	.	.	.	.	4e\	.	4e/)	.	4ee/	4cc#X\	.
=38	=38	=38	=38	=38	=38	=38	=38	=38	=38	=38	=38
1BB	.	2.F#/)	2.BB\	.	4d#X\	.	(<4d#X/	.	4dd#X/	4b\	.
!	!LO:MO:null:mod=]	!	!	!LO:MO:null:mod=]	!	!LO:MO:null:mod=]	!	!LO:MO:null:mod=]	!	!	!
.	.	.	.	.	4c#X\)	.	4e/	.	4ee/	4cc#X\	]
.	.	.	.	.	2B\ 2d#X	.	2f#/)	.	2ff#/)	2dd#\)	.
.	.	4B\	4ryy	.	.	.	.	.	.	.	.
*	*	*v	*v	*	*	*	*	*	*v	*v	*
=39	=39	=39	=39	=39	=39	=39	=39	=39	=39
!	!	!	!LO:MO:null:mod=!LO&colon;DY&colon;ed=brack	!	!LO:MO:null:mod=!LO&colon;DY&colon;ed=brack	!	!LO:MO:null:mod=!LO&colon;DY&colon;ed=brack	!	!
!	!	!	!	!	!	!	!	!	!
!	!	!	!LO:MO:null:mod=p	!	!LO:MO:null:mod=p	!	!LO:MO:null:mod=p	!	!LO:DY:a:t=piano
1r	.	(>2e\	.	(>2b/	.	(>2ee\	.	(>2gg/	p
.	.	2A\)	.	4a/	.	2cc\	.	4ff#/	.
.	.	.	.	4g/)	.	.	.	4ee/)	.
=40	=40	=40	=40	=40	=40	=40	=40	=40	=40
1r	.	(>2B\	.	(>4f#/	.	1b)	.	(>2dd#X/	.
.	.	.	.	4b/	.	.	.	.	.
.	.	2E\)	.	2g/)	.	.	.	4ee/	.
.	.	.	.	.	.	.	.	4gg/)	.
=41	=41	=41	=41	=41	=41	=41	=41	=41	=41
1r	.	[>1G	.	(>2d\	.	(>2b\	.	(>2bb/	.
.	.	.	.	2d#X\	.	2cc\	.	4aa/	.
.	.	.	.	.	.	.	.	4gg/)	.
=42	=42	=42	=42	=42	=42	=42	=42	=42	=42
1r	.	1G]	.	2e\	.	2cc#X\	.	(>2bb/	.
.	.	.	.	2f#\)	.	2dd\)	.	4aa/	.
.	.	.	.	.	.	.	.	4gg/)	.
=43	=43	=43	=43	=43	=43	=43	=43	=43	=43
*	*	*^	*	*	*	*	*	*^	*
!	!LO:MO:null:mod=!LO&colon;DY&colon;ed=brack	!	!	!	!	!	!	!	!	!	!
!	!	!	!	!	!	!	!	!	!	!	!
!	!LO:MO:null:mod=p	!	!	!	!	!	!	!	!	!	!
2C\	.	(>2G/	2C\	.	(>2e\	.	(>2ee\	.	(>2ggg/	2gg\	.
2C#X\	.	4A/	2C#X\	.	4a\	.	4ffn\	.	4fffn/	2aa\	.
.	.	4G/)	.	.	4g\)	.	4ee\)	.	4eee/)	.	.
!!LO:LB:g=original
=44	=44	=44	=44	=44	=44	=44	=44	=44	=44	=44	=44
!	!	!LO:SIC:v:s=(>4F	!	!	!	!	!	!	!	!	!
2D\	.	(>4F#/	2D\	.	2fn\	.	(>4dd/	.	(>4ddd/	2ffn\	.
.	.	4c/	.	.	.	.	4cc/	.	4ccc/	.	.
2D#X\	.	4B/	2D#X\	.	2f#X\	.	4b/	.	4bb/)	2ff#X\	.
.	.	4A/)	.	.	.	.	4a/	.	4aa/	.	.
=45	=45	=45	=45	=45	=45	=45	=45	=45	=45	=45	=45
2E\	.	2G#X/	2E\	.	(2e\	.	4g#X/	.	(>4gg#X/	(<4ee\	.
.	.	.	.	.	.	.	4f#/	.	4ff#/	4dd\	.
2GG#X\	.	2E/	2GG#X\	.	4e\)	.	4e/	.	4ee/	4cc\	.
.	.	.	.	.	4d\	.	4d/)	.	4dd/)	4b\	.
=46	=46	=46	=46	=46	=46	=46	=46	=46	=46	=46	=46
!	!	!	!LO:SIC:v:s=2.AA	!	!	!	!	!	!	!	!
2.AA\	.	2.E/	2.GG\	.	4c#X\	.	(>4c#X/	.	(>4cc#X/	4a\	.
.	.	.	.	.	4B\	.	4d/	.	4dd/	4b\	.
.	.	.	.	.	4c#X\	.	4e/)	.	4ee/)	4cc#\)	.
!	!	!LO:SIC:s=4r;	!LO:MO:mod=4ryyyy	!	!	!	!	!	!LO:SIC:s=4r;	!LO:MO:mod=4ryyyy	!
4r;>	.	4rA;>	4r	.	4r;>	.	4r;>	.	4rff;>	4r	.
*	*	*v	*v	*	*	*	*	*	*v	*v	*
=47	=47	=47	=47	=47	=47	=47	=47	=47	=47
*	*	*	*	*^	*	*	*	*	*
1r	.	1r	.	[>1e	(>2A\	.	(>2cc\	.	(>4ee/	.
.	.	.	.	.	.	.	.	.	4ff#/	.
.	.	.	.	.	2E\)	.	2b\)	.	4gg/	.
.	.	.	.	.	.	.	.	.	4ff#/)	.
=48	=48	=48	=48	=48	=48	=48	=48	=48	=48	=48
1r	.	1r	.	1e]	(>2A\	.	(>2cc\	.	(>4ee/	.
.	.	.	.	.	.	.	.	.	8ff#/L	.
.	.	.	.	.	.	.	.	.	8ee/J	.
.	.	.	.	.	2E\)	.	2b\)	.	2gg/)	.
*	*	*	*	*v	*v	*	*	*	*	*
=49	=49	=49	=49	=49	=49	=49	=49	=49	=49
*	*	*^	*	*	*	*	*	*	*
(>2C\	.	(>2E/	(<2C\	.	(<4G/	.	1r	.	1r	.
.	.	.	.	.	4A/	.	.	.	.	.
2GG\)	.	2D#X/)	2GG\)	.	4B/	.	.	.	.	.
.	.	.	.	.	4A/)	.	.	.	.	.
=50	=50	=50	=50	=50	=50	=50	=50	=50	=50	=50
(>2C\	.	(>2E/	(<2C\	.	(>4G/	.	1r	.	1r	.
.	.	.	.	.	8A/L	.	.	.	.	.
.	.	.	.	.	8G/J	.	.	.	.	.
2GG\)	.	2D/)	2GG\)	.	4B/	.	.	.	.	.
.	.	.	.	.	4A/)	.	.	.	.	.
!!LO:LB:g=original
=51	=51	=51	=51	=51	=51	=51	=51	=51	=51	=51
2.C\	.	2.E/	2.C\	.	(<4G/	.	1r	.	1r	.
.	.	.	.	.	4F#X/	.	.	.	.	.
.	.	.	.	.	4G/	.	.	.	.	.
4r	.	4r	4r	.	4B/)	.	.	.	.	.
*	*	*v	*v	*	*	*	*	*	*	*
=52	=52	=52	=52	=52	=52	=52	=52	=52	=52
1r	.	1r	.	(>4c\	.	1r	.	1r	.
.	.	.	.	4d#X\	.	.	.	.	.
.	.	.	.	4e\	.	.	.	.	.
.	.	.	.	4f#X\	.	.	.	.	.
=53	=53	=53	=53	=53	=53	=53	=53	=53	=53
1r	.	1r	.	4g\)	.	4r	.	1r	.
.	.	.	.	4r	.	(>4b\	.	.	.
.	.	.	.	2r	.	4cc\	.	.	.
.	.	.	.	.	.	4dd#X\	.	.	.
=54	=54	=54	=54	=54	=54	=54	=54	=54	=54
1r	.	1r	.	1r	.	4ee\)	.	4r	.
.	.	.	.	.	.	4r	.	(>4ff#\	.
.	.	.	.	.	.	2r	.	4gg\	.
.	.	.	.	.	.	.	.	4bb\	.
=55	=55	=55	=55	=55	=55	=55	=55	=55	=55
*	*	*	*	*	*	*	*	*^	*
1r	.	1r	.	1r	.	(>(<1b 1dd#X	.	1ggg)	1gg	.
*	*	*	*	*	*	*	*	*v	*v	*
=56	=56	=56	=56	=56	=56	=56	=56	=56	=56
1r	.	1r	.	(<<1c [>1g	.	1cc)) 1ee	.	1r	.
=57	=57	=57	=57	=57	=57	=57	=57	=57	=57
*	*	*^	*	*	*	*	*	*	*
(>1AA	.	(>[>1G	(<1AA	.	1c#X) 1g]	.	1r	.	1r	.
=58	=58	=58	=58	=58	=58	=58	=58	=58	=58	=58
*	*	*	*	*	*^	*	*	*	*	*
1D)	.	2G/]	1D)	.	(>2.b/	(<2.d\	.	1r	.	1r	.
.	.	2F#/)	.	.	.	.	.	.	.	.	.
.	.	.	.	.	4a/)	4c\)	.	.	.	.	.
!!LO:PB:g=original
=59	=59	=59	=59	=59	=59	=59	=59	=59	=59	=59	=59
*	*	*	*	*	*	*	*	*^	*	*^	*
(>2GG\	.	(>2G/	(<1GG	.	(>2g/	(<2B\	.	(>2gg/	(<2b\	.	(>2ggg/	(<2bb\	.
2D\)	.	2D\))	.	.	2f#/)	2A\)	.	2ff#/)	2dd\)	.	2fff#/)	2aa\)	.
*	*	*v	*v	*	*	*	*	*	*	*	*	*	*
=60	=60	=60	=60	=60	=60	=60	=60	=60	=60	=60	=60	=60
(>2E\	.	(>2E\	.	(>2e/	2G\	.	(>2ee/	2b\	.	(>2eee/	2gg\	.
2BB\)	.	2BB\)	.	4d/	2F#\	.	2dd/)	2b\	.	4ddd/	2ff#\	.
.	.	.	.	4B/)	.	.	.	.	.	4bb/)	.	.
=61	=61	=61	=61	=61	=61	=61	=61	=61	=61	=61	=61	=61
!	!LO:MO:null:mod=!LO&colon;HP&colon;ed=brack	!	!LO:MO:null:mod=!LO&colon;HP&colon;ed=brack	!	!	!	!	!	!LO:MO:null:mod=!LO&colon;HP&colon;ed=brack	!	!	!
!	!	!	!	!	!	!LO:MO:mod=!null:null	!	!	!	!	!	!LO:MO:mod=!null:null
!	!LO:MO:null:mod=<	!	!LO:MO:null:mod=<	!	!	!LO:HP:a	!	!	!LO:MO:null:mod=<	!	!	!LO:HP:a
2E\	.	2E\	.	(>2B/	2G\	<	1ee	(<2b\	.	(>2bb/	2gg\	<
!	!	!	!	!	!	!LO:MO:null:mod=.	!	!LO:SIC:v:s=4dd\	!	!	!	!
2AA\	.	2AA\	.	4d/	2A\	[	.	4cc\	.	4ddd/	2aa\	.
!	!LO:MO:null:mod=[	!	!LO:MO:null:mod=[	!	!	!LO:MO:null:mod=[	!	!LO:SIC:v:s=4cc\)	!LO:MO:null:mod=[	!	!	!
.	.	.	.	4c/)	.	.	.	4b\)	.	4ccc/)	.	[
=62	=62	=62	=62	=62	=62	=62	=62	=62	=62	=62	=62	=62
2.D\	.	2.D\	.	(>2g/	(<2B\	.	(>2dd/	(<2b\	.	(>2bb/	2gg\	.
.	.	.	.	4f#/)	4A\)	.	4dd/)	4a\)	.	8aa/L)	4ff#\	.
.	.	.	.	.	.	.	.	.	.	(>8ddd/	.	.
4r	.	4r	.	4r	4r	.	4r	4r	.	8fff#/	4r	.
.	.	.	.	.	.	.	.	.	.	8aaa/J	.	.
*	*	*	*	*	*	*	*	*	*	*v	*v	*
=63	=63	=63	=63	=63	=63	=63	=63	=63	=63	=63	=63
*	*	*^	*	*	*	*	*	*	*	*	*
(>2G\	.	(>2G/	2G\	.	(>2b/	(<2d\	.	(>2gg/	(<2g\	.	(>(>2ddd\) 2bbb	.
2D\)	.	2F#/)	2D\	.	2a/)	2d\)	.	2ff#/)	2f#\)	.	2ddd\)) 2aaa	.
=64	=64	=64	=64	=64	=64	=64	=64	=64	=64	=64	=64	=64
*	*	*	*	*	*	*	*	*	*	*	*^	*
(>2E\	.	(>2G/	2E\	.	(>2g/	(<2B\	.	2ee/	2e\	.	(>2ggg/	[<2bb\	.
2BB/)	.	2F#/)	2BB\	.	4f#/	2B\)	.	2ff#/	4d\	.	4fff#/	2bb\]	.
.	.	.	.	.	4d/)	.	.	.	4dd\	.	4ddd/)	.	.
=65	=65	=65	=65	=65	=65	=65	=65	=65	=65	=65	=65	=65	=65
(>2G\	.	2G/	2GG\	.	4d/	2B\	.	[>2gg/	2dd\	.	2ddd/	(<2bb\	.
.	.	.	.	.	4dd/	.	.	.	.	.	.	.	.
2C#X\)	.	2C#X/	2C#\	.	4cc#X/	2e\	.	2gg/]	2ee\	.	2eee/	2bb\)	.
.	.	.	.	.	4b/	.	.	.	.	.	.	.	.
!!LO:LB:g=original
=66	=66	=66	=66	=66	=66	=66	=66	=66	=66	=66	=66	=66	=66
(>2F#\	.	[>2F#/	(<2FF#\	.	(>2a#X/	(>4c#X\	.	[>2ff#/	(<2ee\	.	(>4ccc#X/	2aa#X\	.
.	.	.	.	.	.	4d\	.	.	.	.	4ddd/)	.	.
2BB\)	.	2F#/]	2BB\)	.	2b/)	2d\)	.	2ff#/]	2dd\)	.	2ddd/	2bb\	.
*	*	*v	*v	*	*	*	*	*v	*v	*	*v	*v	*
*	*	*	*	*v	*v	*	*	*	*	*
==	==	==	==	==	==	==	==	==	==
*-	*-	*-	*-	*-	*-	*-	*-	*-	*-
!!!system-decoration: [(s1,s2,s3,s4,s5)]
!!!RDF**kern: < = below
!!!RDF**kern: > = above
!!!RDF**kern: N = linked
!!!ENC: Marta Opryszak
!!!END: 2021-12-03
!!!ENC: Marta Chmielewska
!!!END: 2021-12-17
!!!ENC-modern: Andrzej Borzym
!!!END-modern: 2022-08-29
!!!YEC: Copyright 2022 Narodowy Instytut Fryderyka Chopina (https://polishscores.org)
!!!YEM: License CC-BY-4.0 (https://creativecommons.org/licenses/by/4.0)
